Sources/FrostedUI/Resources/Icons.xcassets/document12.imageset/document-12.svg

<svg width="12" height="12" viewBox="0 0 12 12" fill="none" xmlns="http://www.w3.org/2000/svg" data-fui-icon="true">
  <path
    fill-rule="evenodd"
    clip-rule="evenodd"
    d="M3.12053 0C1.94939 0 1 0.949392 1 2.12053V9.87947C1 11.0506 1.94939 12 3.12053 12H8.87947C10.0506 12 11 11.0506 11 9.87947V4.26685C11 3.70281 10.7753 3.16201 10.3756 2.76407L8.21962 0.617742C7.82222 0.222113 7.28429 0 6.72354 0H3.12053ZM2.5 2.12053C2.5 1.77782 2.77782 1.5 3.12053 1.5H6.72354C6.7263 1.5 6.72906 1.50002 6.73182 1.50006C6.73789 1.50014 6.74395 1.50031 6.75 1.50056V2.88C6.75 3.63663 7.36337 4.25 8.12 4.25H9.49977L9.5 4.26685V9.87947C9.5 10.2222 9.22218 10.5 8.87947 10.5H3.12053C2.77782 10.5 2.5 10.2222 2.5 9.87947V2.12053Z"
    fill="currentColor"
  />
</svg>

<svg xmlns="http://www.w3.org/2000/svg" width="12" height="12" fill="none" data-fui-icon="true" viewBox="0 0 12 12"><path fill="currentColor" fill-rule="evenodd" d="M3.12 0A2.12 2.12 0 0 0 1 2.12v7.76C1 11.05 1.95 12 3.12 12h5.76A2.12 2.12 0 0 0 11 9.88V4.266a2.12 2.12 0 0 0-.624-1.503L8.22.618A2.12 2.12 0 0 0 6.724 0zM2.5 2.12a.62.62 0 0 1 .62-.62h3.63v1.38c0 .757.613 1.37 1.37 1.37H9.5v5.629a.62.62 0 0 1-.62.621H3.12a.62.62 0 0 1-.62-.62z" clip-rule="evenodd"/></svg>
